_includes/icons/color-compass.svg

<svg fill="#666" height="50" viewBox="0 0 48 48" width="50" xmlns="http://www.w3.org/2000/svg"><path d="m44 24c0 11.046875-8.953125 20-20 20s-20-8.953125-20-20 8.953125-20 20-20 20 8.953125 20 20" fill="#2196f3"/><path d="m40 24c0 8.835938-7.164062 16-16 16-8.835937 0-16-7.164062-16-16 0-8.835937 7.164063-16 16-16 8.835938 0 16 7.164063 16 16" fill="#eee"/><g fill="#90a4ae"><path d="m24 10-2 14 2 14 2-14z"/><path d="m14.101563 14.101563 8.484375 11.3125 11.3125 8.484375-8.484375-11.3125z"/><path d="m10 24 14 2 14-2-14-2z"/></g><path d="m14.101563 33.898438 12.019531-7.777344-4.242188-4.242188z" fill="#3f51b5"/><path d="m21.878906 21.878906 4.242188 4.242188 7.777344-12.019531z" fill="#ff3d00"/><path d="m25.5 24c0 .828125-.671875 1.5-1.5 1.5s-1.5-.671875-1.5-1.5.671875-1.5 1.5-1.5 1.5.671875 1.5 1.5" fill="#fff"/></svg>

<svg xmlns="http://www.w3.org/2000/svg" viewBox="0 0 48 48" width="50" height="50" fill="#666"><path d="M 44 24 C 44 35.046875 35.046875 44 24 44 C 12.953125 44 4 35.046875 4 24 C 4 12.953125 12.953125 4 24 4 C 35.046875 4 44 12.953125 44 24" fill="#2196f3"/><path d="M 40 24 C 40 32.835938 32.835938 40 24 40 C 15.164063 40 8 32.835938 8 24 C 8 15.164063 15.164063 8 24 8 C 32.835938 8 40 15.164063 40 24" fill="#eee"/><path d="M 24 10 L 22 24 L 24 38 L 26 24 Z" fill="#90a4ae"/><path d="M 14.101563 14.101563 L 22.585938 25.414063 L 33.898438 33.898438 L 25.414063 22.585938 Z" fill="#90a4ae"/><path d="M 10 24 L 24 26 L 38 24 L 24 22 Z" fill="#90a4ae"/><path d="M 14.101563 33.898438 L 26.121094 26.121094 L 21.878906 21.878906 Z" fill="#3f51b5"/><path d="M 21.878906 21.878906 L 26.121094 26.121094 L 33.898438 14.101563 Z" fill="#ff3d00"/><path d="M 25.5 24 C 25.5 24.828125 24.828125 25.5 24 25.5 C 23.171875 25.5 22.5 24.828125 22.5 24 C 22.5 23.171875 23.171875 22.5 24 22.5 C 24.828125 22.5 25.5 23.171875 25.5 24" fill="#fff"/></svg>
